X:1
T:Raggle Taggle Gypsy
M:C
L:1/8
R:unknown
K:Bm
"Em"(BA)|G2E2 E2BA|G2F2E2B2|e2e2 "D" f3(f/e/)|"Bm"d2B2 B3B|"D"d2d2 "Em"e2Bd|"Bm"(dc)(BA) "C"G2(EF)|"Em"G2A2 "D"BdcA|"Em"B2E2 E2|]

